build/img/icons/star-icon.svg

<svg width="28" height="27" viewBox="0 0 28 27" fill="none" xmlns="http://www.w3.org/2000/svg">
<path d="M11.4176 6.11443C12.5119 3.43788 13.0591 2.09961 14 2.09961C14.9409 2.09961 15.4881 3.43788 16.5824 6.11443L16.6334 6.23907C17.2516 7.75119 17.5607 8.50725 18.1907 8.96679C18.8208 9.42633 19.6478 9.499 21.3018 9.64433L21.6008 9.6706C24.3079 9.90845 25.6614 10.0274 25.951 10.8722C26.2406 11.7171 25.2354 12.6143 23.2251 14.4087L22.5541 15.0076C21.5364 15.9159 21.0276 16.3701 20.7904 16.9654C20.7462 17.0764 20.7094 17.1902 20.6803 17.3059C20.5245 17.9265 20.6735 18.5854 20.9715 19.9031L21.0642 20.3133C21.6119 22.7351 21.8857 23.946 21.4076 24.4683C21.229 24.6634 20.9967 24.8039 20.7388 24.873C20.0485 25.0578 19.0684 24.2743 17.1082 22.7073C15.8211 21.6783 15.1776 21.1638 14.4387 21.0481C14.1481 21.0025 13.8519 21.0025 13.5613 21.0481C12.8224 21.1638 12.1789 21.6783 10.8918 22.7073C8.9316 24.2743 7.95153 25.0578 7.26121 24.873C7.00325 24.8039 6.77104 24.6634 6.59238 24.4683C6.11425 23.946 6.38809 22.7351 6.93577 20.3133L7.02854 19.9031C7.32655 18.5854 7.47555 17.9265 7.31966 17.3059C7.29058 17.1902 7.2538 17.0764 7.20956 16.9654C6.97239 16.3701 6.46355 15.9159 5.44587 15.0076L4.77492 14.4087C2.76456 12.6143 1.75938 11.7171 2.049 10.8722C2.33862 10.0274 3.69214 9.90845 6.39917 9.6706L6.6982 9.64433C8.35223 9.499 9.17925 9.42633 9.80926 8.96679C10.4393 8.50725 10.7484 7.75119 11.3666 6.23907L11.4176 6.11443Z" fill="#88AB8E" stroke="#88AB8E" stroke-width="3"/>
</svg>

<svg width="28" height="27" fill="none" xmlns="http://www.w3.org/2000/svg"><path d="M11.418 6.114C12.512 3.438 13.059 2.1 14 2.1c.94 0 1.488 1.338 2.582 4.014l.051.125c.619 1.512.928 2.268 1.558 2.728.63.46 1.457.532 3.11.677l.3.027c2.707.237 4.06.356 4.35 1.201.29.845-.716 1.742-2.726 3.537l-.67.599c-1.019.908-1.527 1.362-1.765 1.957a2.702 2.702 0 0 0-.11.34c-.155.622-.006 1.28.291 2.598l.093.41c.548 2.422.822 3.633.344 4.155a1.397 1.397 0 0 1-.67.405c-.69.185-1.67-.599-3.63-2.166-1.287-1.029-1.93-1.543-2.67-1.659a2.83 2.83 0 0 0-.877 0c-.739.116-1.382.63-2.67 1.66-1.96 1.566-2.94 2.35-3.63 2.165-.258-.07-.49-.21-.669-.405-.478-.522-.204-1.733.344-4.155l.093-.41c.298-1.318.447-1.976.29-2.597a2.693 2.693 0 0 0-.11-.34c-.237-.596-.745-1.05-1.763-1.958l-.671-.6c-2.01-1.794-3.016-2.69-2.726-3.536.29-.845 1.643-.964 4.35-1.201l.3-.027c1.653-.145 2.48-.218 3.11-.677.63-.46.94-1.216 1.558-2.728l.05-.125Z" fill="#88AB8E" stroke="#88AB8E" stroke-width="3"/></svg>
